icons/askizzy-icon-external-link.svg

<?xml version="1.0" encoding="utf-8"?>
<svg width="1792" height="1792" viewBox="0 0 1792 1792" xmlns="http://www.w3.org/2000/svg"><path d="M1408 928v320q0 119-84.5 203.5t-203.5 84.5h-832q-119 0-203.5-84.5t-84.5-203.5v-832q0-119 84.5-203.5t203.5-84.5h704q14 0 23 9t9 23v64q0 14-9 23t-23 9h-704q-66 0-113 47t-47 113v832q0 66 47 113t113 47h832q66 0 113-47t47-113v-320q0-14 9-23t23-9h64q14 0 23 9t9 23zm384-864v512q0 26-19 45t-45 19-45-19l-176-176-652 652q-10 10-23 10t-23-10l-114-114q-10-10-10-23t10-23l652-652-176-176q-19-19-19-45t19-45 45-19h512q26 0 45 19t19 45z"/></svg>

<svg viewBox="0 0 1792 1536"><path d="m 1408,928 v 320 q 0,119 -84.5,203.5 Q 1239,1536 1120,1536 H 288 Q 169,1536 84.5,1451.5 0,1367 0,1248 V 416 Q 0,297 84.5,212.5 169,128 288,128 h 704 q 14,0 23,9 9,9 9,23 v 64 q 0,14 -9,23 -9,9 -23,9 H 288 q -66,0 -113,47 -47,47 -47,113 v 832 q 0,66 47,113 47,47 113,47 h 832 q 66,0 113,-47 47,-47 47,-113 V 928 q 0,-14 9,-23 9,-9 23,-9 h 64 q 14,0 23,9 9,9 9,23 z M 1792,64 v 512 q 0,26 -19,45 -19,19 -45,19 -26,0 -45,-19 L 1507,445 855,1097 q -10,10 -23,10 -13,0 -23,-10 L 695,983 q -10,-10 -10,-23 0,-13 10,-23 L 1347,285 1171,109 q -19,-19 -19,-45 0,-26 19,-45 19,-19 45,-19 h 512 q 26,0 45,19 19,19 19,45 z" id="path12"></path></svg>
